images/guide_icon_02.svg

<svg fill="none" height="56" viewBox="0 0 56 56" width="56" xmlns="http://www.w3.org/2000/svg"><path d="m54.6667 27.9987c0 14.7276-11.9391 26.6667-26.6667 26.6667s-26.66662-11.9391-26.66663-26.6667c.00001-14.7276 11.93903-26.66667 26.66663-26.66667s26.6667 11.93907 26.6667 26.66667z" fill="#ec9e2a" stroke="#ffd66d" stroke-linejoin="round" stroke-width="1.5"/><g clip-rule="evenodd" fill="#ffd66d" fill-rule="evenodd"><path d="m18.3601 3.12891c-.1899.75005-.6478 1.43493-1.3422 1.89791l-.2425.16163c-.817.5447-.817 1.7453 0 2.28999 1.5977 1.0651 1.8215 3.32556.4638 4.68336l-.5943.5942c-.9215.9215-.7696 2.4557.3147 3.1786l2.0583 1.3721-.9245 1.3868-2.0583-1.3722c-1.9594-1.3063-2.2339-4.0786-.5687-5.7438l.5942-.5943c.6141-.614.5129-1.63631-.2097-2.11801-1.4203-.94685-1.724-2.79007-.9111-4.12027 1.0945-.61603 2.237-1.15703 3.4203-1.61601z"/><path d="m28.1095 1.33211.086.12898c.4811.72163.2861 1.69662-.4355 2.17771l-.2425.16163c-1.8066 1.2044-1.8066 3.85909 0 5.06349.7225.48169.8238 1.50398.2097 2.11808l-.5943.5943c-1.6651 1.6651-1.3906 4.4375.5688 5.7437l2.0583 1.3722.9245-1.3867-2.0583-1.3722c-1.0843-.7229-1.2362-2.257-.3147-3.1785l.5942-.5943c1.3578-1.3578 1.134-3.61824-.4637-4.68333-.817-.5447-.817-1.74529 0-2.28999l.2425-.16163c1.2126-.8084 1.7038-2.29337 1.3067-3.62045-.6215-.04588-1.249-.07045-1.8817-.07299z"/><path d="m40.8435 4.62545c-.1478.14733-.3121.28244-.4924.40261l-.2424.16163c-.8171.54469-.8171 1.74529 0 2.28998 1.5976 1.0651 1.8215 3.32553.4637 4.68333l-.5943.5943c-.9215.9215-.7696 2.4556.3148 3.1785l2.0582 1.3722-.9245 1.3867-2.0582-1.3722c-1.9595-1.3062-2.234-4.0786-.5688-5.7437l.5943-.5943c.614-.6141.5128-1.63638-.2097-2.11808-1.8066-1.2044-1.8066-3.85908 0-5.06348l.0149-.00997c.5589.25898 1.1073.53674 1.6444.83248z"/></g><ellipse cx="28" cy="30.7769" fill="#ec9e2a" rx="25.5556" ry="7.22222" stroke="#ffd66d" stroke-linejoin="round" stroke-width="1.5"/><path d="m2.61938 33.2207c3.46074-2.9014 13.51572-5 25.38052-5s21.9198 2.0986 25.3805 5" stroke="#ffd66d" stroke-linejoin="round" stroke-width="1.5"/></svg>

<svg width="56" height="56" viewBox="0 0 56 56" fill="none" xmlns="http://www.w3.org/2000/svg">
<path d="M54.6667 27.9987C54.6667 42.7263 42.7276 54.6654 28 54.6654C13.2724 54.6654 1.33338 42.7263 1.33337 27.9987C1.33338 13.2711 13.2724 1.33203 28 1.33203C42.7276 1.33203 54.6667 13.2711 54.6667 27.9987Z" fill="#EC9E2A" stroke="#FFD66D" stroke-width="1.5" stroke-linejoin="round"/>
<path fill-rule="evenodd" clip-rule="evenodd" d="M18.3601 3.12891C18.1702 3.87896 17.7123 4.56384 17.0179 5.02682L16.7754 5.18845C15.9584 5.73315 15.9584 6.93375 16.7754 7.47844C18.3731 8.54354 18.5969 10.804 17.2392 12.1618L16.6449 12.756C15.7234 13.6775 15.8753 15.2117 16.9596 15.9346L19.0179 17.3067L18.0934 18.6935L16.0351 17.3213C14.0757 16.015 13.8012 13.2427 15.4664 11.5775L16.0606 10.9832C16.6747 10.3692 16.5735 9.34689 15.8509 8.86519C14.4306 7.91834 14.1269 6.07512 14.9398 4.74492C16.0343 4.12889 17.1768 3.58789 18.3601 3.12891Z" fill="#FFD66D"/>
<path fill-rule="evenodd" clip-rule="evenodd" d="M28.1095 1.33211L28.1955 1.46109C28.6766 2.18272 28.4816 3.15771 27.76 3.6388L27.5175 3.80043C25.7109 5.00483 25.7109 7.65952 27.5175 8.86392C28.24 9.34561 28.3413 10.3679 27.7272 10.982L27.1329 11.5763C25.4678 13.2414 25.7423 16.0138 27.7017 17.32L29.76 18.6922L30.6845 17.3055L28.6262 15.9333C27.5419 15.2104 27.39 13.6763 28.3115 12.7548L28.9057 12.1605C30.2635 10.8027 30.0397 8.54226 28.442 7.47717C27.625 6.93247 27.625 5.73188 28.442 5.18718L28.6845 5.02555C29.8971 4.21715 30.3883 2.73218 29.9912 1.4051C29.3697 1.35922 28.7422 1.33465 28.1095 1.33211Z" fill="#FFD66D"/>
<path fill-rule="evenodd" clip-rule="evenodd" d="M40.8435 4.62545C40.6957 4.77278 40.5314 4.90789 40.3511 5.02806L40.1087 5.18969C39.2916 5.73438 39.2916 6.93498 40.1087 7.47967C41.7063 8.54477 41.9302 10.8052 40.5724 12.163L39.9781 12.7573C39.0566 13.6788 39.2085 15.2129 40.2929 15.9358L42.3511 17.308L41.4266 18.6947L39.3684 17.3225C37.4089 16.0163 37.1344 13.2439 38.7996 11.5788L39.3939 10.9845C40.0079 10.3704 39.9067 9.34812 39.1842 8.86642C37.3776 7.66202 37.3776 5.00734 39.1842 3.80294L39.1991 3.79297C39.758 4.05195 40.3064 4.32971 40.8435 4.62545Z" fill="#FFD66D"/>
<ellipse cx="28" cy="30.7769" rx="25.5556" ry="7.22222" fill="#EC9E2A" stroke="#FFD66D" stroke-width="1.5" stroke-linejoin="round"/>
<path d="M2.61938 33.2207C6.08012 30.3193 16.1351 28.2207 27.9999 28.2207C39.8647 28.2207 49.9197 30.3193 53.3804 33.2207" stroke="#FFD66D" stroke-width="1.5" stroke-linejoin="round"/>
</svg>
